svg/u1f645_1f3fd_200d_2642.svg

<svg viewBox="0 0 128 128" xmlns="http://www.w3.org/2000/svg">
  <path id="ears" d="M91.33,50.43H36.67c-5.89,0-10.71,5.14-10.71,11.41c0,6.28,4.82,11.41,10.71,11.41h54.65 c5.89,0,10.71-5.14,10.71-11.41C102.04,55.57,97.22,50.43,91.33,50.43z" fill="#99674F"/>
  <path id="head" d="M64,11.07c-17.4,0-33.52,18.61-33.52,45.39c0,1.59,0.06,3.13,0.18,4.63c0,0,0,0,0,0.01 c0.31,4.05,1.03,7.74,2.09,11.09c0.16,0.51,0.33,1.01,0.51,1.5v0.01c0.11,0.31,0.22,0.61,0.34,0.9c0.09,0.24,0.18,0.48,0.28,0.71 c0.14,0.35,0.29,0.7,0.44,1.04c0.25,0.57,0.51,1.12,0.78,1.65c0,0.02,0.01,0.04,0.02,0.05c0.17,0.33,0.34,0.66,0.51,0.98 s0.35,0.64,0.53,0.95c2.85,4.93,6.61,8.74,10.88,11.42c0.88,0.56,1.78,1.07,2.7,1.52c0.58,0.3,1.18,0.58,1.77,0.83 c0.64,0.27,1.29,0.52,1.94,0.74c0.29,0.11,0.57,0.2,0.86,0.29c0.19,0.06,0.38,0.12,0.56,0.17c0.02,0.01,0.04,0.01,0.05,0.01 c0.13,0.05,0.26,0.08,0.39,0.11c0.2,0.07,0.4,0.12,0.6,0.16c0.14,0.05,0.27,0.08,0.4,0.11c0.2,0.05,0.4,0.1,0.6,0.13 c2.33,0.54,4.71,0.8,7.09,0.8c2.38,0,4.76-0.26,7.08-0.8c0.2-0.03,0.4-0.08,0.61-0.13c0.12-0.03,0.25-0.06,0.38-0.1 c0.2-0.05,0.41-0.1,0.62-0.17c0.11-0.02,0.23-0.05,0.35-0.1c0.01,0.01,0.03,0,0.05-0.01c0.2-0.05,0.4-0.11,0.6-0.18 c0.29-0.09,0.57-0.18,0.86-0.29c0.65-0.22,1.3-0.47,1.95-0.75c0.57-0.24,1.14-0.5,1.7-0.78c0.02-0.01,0.04-0.02,0.06-0.04 c5.42-2.7,10.21-7.06,13.66-13.08c0.18-0.31,0.35-0.63,0.52-0.95C92.6,78.6,92.75,78.3,92.9,78c0.02-0.03,0.04-0.06,0.05-0.1 c0.26-0.5,0.5-1.02,0.73-1.55c0.13-0.3,0.27-0.61,0.39-0.92c0.12-0.27,0.23-0.55,0.33-0.83c0.1-0.25,0.19-0.5,0.28-0.75 c0.19-0.49,0.36-1,0.52-1.51c1.09-3.39,1.83-7.15,2.15-11.28c0-0.01,0-0.01,0-0.01c0.11-1.49,0.17-3.01,0.17-4.59 C97.52,29.68,81.4,11.07,64,11.07z" fill="#BA8D68"/>
  <g id="eyes">
    <ellipse cx="47.56" cy="58.81" fill="#49362E" rx="4.93" ry="5.1"/>
    <ellipse cx="80.44" cy="58.81" fill="#49362E" rx="4.93" ry="5.1"/>
  </g>
  <path id="nose" d="M67.86,68.06c-0.11-0.04-0.21-0.07-0.32-0.08h-7.07c-0.11,0.01-0.22,0.04-0.32,0.08 c-0.64,0.26-0.99,0.92-0.69,1.63s1.71,2.69,4.55,2.69c2.84,0,4.25-1.99,4.55-2.69C68.85,68.98,68.5,68.32,67.86,68.06z" fill="#99674F"/>
  <path id="mouth" d="M70.35,83.26c0,3.18-2.84,3.85-6.35,3.85s-6.35-0.73-6.35-3.85c0-3.28,2.84-5.3,6.35-5.3 C67.51,77.96,70.35,79.91,70.35,83.26z" fill="#5D4037"/>
  <g id="hairHighlights_1_">
    <radialGradient id="SVGID_1_" cx="99.7282" cy="45.9494" gradientTransform="matrix(1 0 0 0.4912 -21.2355 59.4798)" gradientUnits="userSpaceOnUse" r="23.419">
      <stop offset="0.7275" stop-color="#6D4C41" stop-opacity="0"/>
      <stop offset="1" stop-color="#6D4C41"/>
    </radialGradient>
    <path d="M63.9,95.69v-9.44l28.57-2.26l2.6,3.2c0,0-6.15,8.51-22.23,8.51L63.9,95.69z" fill="url(#SVGID_1_)"/>
    <radialGradient id="SVGID_2_" cx="49.349" cy="45.9494" gradientTransform="matrix(-1 0 0 0.4912 98.698 59.4798)" gradientUnits="userSpaceOnUse" r="23.419">
      <stop offset="0.7275" stop-color="#6D4C41" stop-opacity="0"/>
      <stop offset="1" stop-color="#6D4C41"/>
    </radialGradient>
    <path d="M63.94,95.69v-9.44l-28.57-2.26l-2.6,3.2c0,0,6.15,8.51,22.23,8.51L63.94,95.69z" fill="url(#SVGID_2_)"/>
  </g>
  <linearGradient id="shirt_x5F_back_2_" gradientTransform="matrix(1 0 0 -1 0 128)" gradientUnits="userSpaceOnUse" x1="63.909" x2="63.909" y1="54.1561" y2="4.7537">
    <stop offset="0" stop-color="#00BFA5"/>
    <stop offset="0.4701" stop-color="#00B29A"/>
    <stop offset="1" stop-color="#009E89"/>
  </linearGradient>
  <path id="shirt_x5F_back_1_" d="M107.81,123.9c0-17.64-21.88-26.59-43.9-26.56 c-21.88,0.03-43.9,7.88-43.9,26.56C20.01,123.9,107.81,123.9,107.81,123.9z" fill="url(#shirt_x5F_back_2_)"/>
  <g id="shadow_x5F_shirt_2_" opacity="0.4">
    <linearGradient id="SVGID_3_" gradientTransform="matrix(1 0 0 -1 0 128)" gradientUnits="userSpaceOnUse" x1="64.01" x2="64.01" y1="15.8442" y2="4.57">
      <stop offset="0.2651" stop-color="#212121"/>
      <stop offset="1" stop-color="#212121" stop-opacity="0"/>
    </linearGradient>
    <path d="M107.91,123.42c-1.1-14.08-21.88-24-43.9-23.97c-21.88,0.03-40.67,7.89-43.9,23.97H107.91z" fill="url(#SVGID_3_)"/>
  </g>
  <g id="tone_1_">
    <path d="M21.76,81.94L9.87,76.87c-1.66-0.71-2.43-2.62-1.72-4.28l0.09-0.21c0.71-1.66,2.62-2.43,4.28-1.72 l11.89,5.06C26.07,76.43,23.42,82.64,21.76,81.94z" fill="#91674D"/>
  </g>
  <linearGradient id="hand_2_" gradientTransform="matrix(1 0 0 -1 -206.4765 128)" gradientUnits="userSpaceOnUse" x1="210.6493" x2="236.6657" y1="58.5794" y2="58.5794">
    <stop offset="0.5999" stop-color="#BA8D68"/>
    <stop offset="1" stop-color="#A47B62"/>
  </linearGradient>
  <path id="hand_1_" d="M38.99,76.13c0,0-18.03-11.35-22.44-15.1c-2.61-2.22-5.48-6.03-6.97-7.86 c-1.35-1.66-5.13,0.22-5.36,2.35c-0.14,1.25,0.11,2.78,1.14,4.59c0,0,6.69,15.98,14.71,21.37l10.97,4.82L38.99,76.13z" fill="url(#hand_2_)"/>
  <linearGradient id="shirt_2_" gradientTransform="matrix(1 0 0 -1 0 128)" gradientUnits="userSpaceOnUse" x1="71.4438" x2="71.4438" y1="54.1561" y2="4.7537">
    <stop offset="0" stop-color="#00BFA5"/>
    <stop offset="0.4701" stop-color="#00B29A"/>
    <stop offset="1" stop-color="#009E89"/>
  </linearGradient>
  <path id="shirt_1_" d="M102.2,104.2L36.26,72.97c-0.24-0.11-0.5-0.16-0.75-0.16 c-0.62,0-1.22,0.32-1.56,0.89l-6.49,11.39c-0.49,0.83-0.23,1.9,0.58,2.42l55.15,36.39h32.48C114.68,115.58,109.7,108.19,102.2,104.2 z" fill="url(#shirt_2_)"/>
  <linearGradient id="shirt_x5F_shadow_2_" gradientTransform="matrix(1 0 0 -1 0 128)" gradientUnits="userSpaceOnUse" x1="58.6035" x2="72.1442" y1="43.1359" y2="18.9586">
    <stop offset="0" stop-color="#212121" stop-opacity="0"/>
    <stop offset="0.5036" stop-color="#212121"/>
    <stop offset="1" stop-color="#212121" stop-opacity="0"/>
  </linearGradient>
  <polygon id="shirt_x5F_shadow_1_" fill="url(#shirt_x5F_shadow_2_)" points="91.37,99.18 68.85,114.53 39.6,95.12 60.31,84.37 "/>
  <g id="tone">
    <path d="M106.23,81.94l11.89-5.06c1.66-0.71,2.43-2.62,1.72-4.28l-0.09-0.21c-0.71-1.66-2.62-2.43-4.28-1.72 l-11.89,5.06C101.93,76.43,104.57,82.64,106.23,81.94z" fill="#91674D"/>
  </g>
  <linearGradient id="hand_3_" gradientTransform="matrix(-1 0 0 -1 581.8156 128)" gradientUnits="userSpaceOnUse" x1="460.3295" x2="485.7392" y1="58.5794" y2="58.5794">
    <stop offset="0.5999" stop-color="#BA8D68"/>
    <stop offset="1" stop-color="#A47B62"/>
  </linearGradient>
  <path id="hand" d="M89.01,76.13c0,0,18.03-11.35,22.44-15.1c2.61-2.22,5.48-6.03,6.97-7.86 c1.35-1.66,5.13,0.22,5.36,2.35c0.14,1.25-0.11,2.78-1.14,4.59c0,0-6.69,15.98-14.71,21.37L96.96,86.3L89.01,76.13z" fill="url(#hand_3_)"/>
  <linearGradient id="shirt_3_" gradientTransform="matrix(1 0 0 -1 0 128)" gradientUnits="userSpaceOnUse" x1="56.3757" x2="56.3757" y1="54.1561" y2="4.7537">
    <stop offset="0" stop-color="#00BFA5"/>
    <stop offset="0.4701" stop-color="#00B29A"/>
    <stop offset="1" stop-color="#009E89"/>
  </linearGradient>
  <path id="shirt" d="M100.36,85.09L93.86,73.7c-0.33-0.57-0.93-0.89-1.56-0.89 c-0.25,0-0.51,0.05-0.75,0.16L25.62,104.2c-7.5,3.99-12.48,11.38-13.47,19.7h32.48l55.15-36.4 C100.58,86.98,100.84,85.92,100.36,85.09z" fill="url(#shirt_3_)"/>
  <g id="hairGroup">
    <path id="hair_7_" d="M64.02,4.03L64.02,4.03c-0.01,0-0.01,0-0.02,0s-0.01,0-0.02,0v0 C18.55,4.27,27.86,56.17,27.86,56.17s2.04,5.35,2.97,7.71c0.13,0.34,0.63,0.3,0.71-0.05C32.5,59.49,36,44.1,37.76,39.42 c1.04-2.76,3.9-4.36,6.8-3.83c4.45,0.81,11.55,1.81,19.37,1.81c0.03,0,0.06,0,0.08,0s0.06,0,0.08,0c7.82,0,14.92-1,19.37-1.81 c2.9-0.53,5.76,1.08,6.79,3.83c1.75,4.66,5.22,19.96,6.2,24.36c0.08,0.36,0.58,0.39,0.71,0.05l2.98-7.67 C100.15,56.17,109.46,4.27,64.02,4.03z" fill="#543930"/>
    <radialGradient id="hairHighlights_2_" cx="64.0075" cy="80.9007" gradientTransform="matrix(1 0 0 -1.1282 0 138.3704)" gradientUnits="userSpaceOnUse" r="38.0925">
      <stop offset="0.7945" stop-color="#6D4C41" stop-opacity="0"/>
      <stop offset="1" stop-color="#6D4C41"/>
    </radialGradient>
    <path id="hairHighlights" d="M100.15,56.17c0,0,9.31-51.9-36.13-52.14v0 c-0.01,0-0.01,0-0.02,0h0c0,0-0.01,0-0.02,0l0,0c-0.71,0-1.4,0.02-2.08,0.05C60.56,4.14,59.25,4.24,58,4.39c-0.01,0-0.03,0-0.04,0 c-0.09,0.01-0.17,0.03-0.26,0.04C19.45,9.24,27.86,56.17,27.86,56.17l2.98,7.68c0.13,0.34,0.62,0.31,0.7-0.05 c0.98-4.39,4.46-19.71,6.22-24.37c1.04-2.76,3.9-4.36,6.8-3.83c4.45,0.81,11.55,1.81,19.37,1.81c0.03,0,0.06,0,0.08,0 s0.06,0,0.08,0c7.82,0,14.92-1,19.37-1.81c2.9-0.53,5.76,1.08,6.79,3.83c1.76,4.68,5.25,20.1,6.21,24.42 c0.08,0.36,0.57,0.39,0.7,0.05C98.1,61.54,100.15,56.17,100.15,56.17z" fill="url(#hairHighlights_2_)"/>
  </g>
  <g id="eyebrows">
    <path d="M40.03,48.74c3.18-4.51,10.66-4.66,14.41-0.82c0.65,0.67,1.34,1.53,0.85,2.5 c-0.54,1.07-1.65,0.9-2.56,0.53c-2.43-0.98-4.94-1.42-7.55-0.89c-1.13,0.23-2.1,0.7-3.17,1.08C40.56,51.64,39.1,50.13,40.03,48.74z " fill="#613E31"/>
    <path d="M86.09,51.14c-2.23-0.97-4.49-1.53-6.95-1.25c-1.12,0.13-2.22,0.42-3.26,0.83 c-0.83,0.33-1.72,0.86-2.58,0.28c-2.45-1.69,1.89-4.44,3.17-4.99c2.76-1.19,6.05-1.08,8.72,0.31c1.06,0.55,2.21,1.35,2.84,2.4 C88.82,50.03,87.64,51.77,86.09,51.14z" fill="#613E31"/>
  </g>
</svg>

<svg viewBox="0 0 128 128" xmlns="http://www.w3.org/2000/svg">
  <defs>
    <linearGradient id="hand_2_" gradientTransform="matrix(1 0 0 -1 0 0)" gradientUnits="userSpaceOnUse" x1="4.1728" x2="30.1892" y1="-69.4206" y2="-69.4206">
      <stop offset="0.5999" stop-color="#BA8D68"/>
      <stop offset="1" stop-color="#A47B62"/>
    </linearGradient>
    <linearGradient id="shirt_2_" gradientTransform="matrix(1 0 0 -1 0 0)" gradientUnits="userSpaceOnUse" x1="71.4438" x2="71.4438" y1="-73.8439" y2="-123.2463">
      <stop offset="0" stop-color="#00BFA5"/>
      <stop offset="0.4701" stop-color="#00B29A"/>
      <stop offset="1" stop-color="#009E89"/>
    </linearGradient>
    <linearGradient id="shirt_x5F_back_2_" gradientTransform="matrix(1 0 0 -1 0 0)" gradientUnits="userSpaceOnUse" x1="63.909" x2="63.909" y1="-73.8439" y2="-123.2463">
      <stop offset="0" stop-color="#00BFA5"/>
      <stop offset="0.4701" stop-color="#00B29A"/>
      <stop offset="1" stop-color="#009E89"/>
    </linearGradient>
    <linearGradient id="shirt_x5F_shadow_2_" gradientTransform="matrix(1 0 0 -1 0 0)" gradientUnits="userSpaceOnUse" x1="58.6035" x2="72.1442" y1="-84.8641" y2="-109.0414">
      <stop offset="0" stop-color="#212121" stop-opacity="0"/>
      <stop offset="0.5036" stop-color="#212121"/>
      <stop offset="1" stop-color="#212121" stop-opacity="0"/>
    </linearGradient>
    <linearGradient id="hand_3_" gradientTransform="matrix(-1 0 0 -1 0 0)" gradientUnits="userSpaceOnUse" x1="-121.4861" x2="-96.0764" y1="-69.4206" y2="-69.4206">
      <stop offset="0.5999" stop-color="#BA8D68"/>
      <stop offset="1" stop-color="#A47B62"/>
    </linearGradient>
    <linearGradient id="shirt_3_" gradientTransform="matrix(1 0 0 -1 0 0)" gradientUnits="userSpaceOnUse" x1="56.3757" x2="56.3757" y1="-73.8439" y2="-123.2463">
      <stop offset="0" stop-color="#00BFA5"/>
      <stop offset="0.4701" stop-color="#00B29A"/>
      <stop offset="1" stop-color="#009E89"/>
    </linearGradient>
    <radialGradient id="SVGID_1_" cx="78.4927" cy="167.040198" gradientTransform="matrix(1 0 0 0.4912 0 0)" gradientUnits="userSpaceOnUse" r="23.419">
      <stop offset="0.7275" stop-color="#6D4C41" stop-opacity="0"/>
      <stop offset="1" stop-color="#6D4C41"/>
    </radialGradient>
    <radialGradient id="SVGID_2_" cx="-49.349" cy="167.040198" gradientTransform="matrix(-1 0 0 0.4912 0 0)" gradientUnits="userSpaceOnUse" r="23.419">
      <stop offset="0.7275" stop-color="#6D4C41" stop-opacity="0"/>
      <stop offset="1" stop-color="#6D4C41"/>
    </radialGradient>
    <linearGradient id="SVGID_3_" gradientTransform="matrix(1 0 0 -1 0 0)" gradientUnits="userSpaceOnUse" x1="64.01" x2="64.01" y1="-112.1558" y2="-123.43">
      <stop offset="0.2651" stop-color="#212121"/>
      <stop offset="1" stop-color="#212121" stop-opacity="0"/>
    </linearGradient>
    <radialGradient id="hairHighlights_2_" cx="64.0075" cy="-41.746348" gradientTransform="matrix(1 0 0 -1.1282 0 0)" gradientUnits="userSpaceOnUse" r="38.0925">
      <stop offset="0.7945" stop-color="#6D4C41" stop-opacity="0"/>
      <stop offset="1" stop-color="#6D4C41"/>
    </radialGradient>
  </defs>
  <path id="ears" d="M91.33,50.43 L36.67,50.43 C30.78,50.43 25.96,55.57 25.96,61.84 C25.96,68.12 30.78,73.25 36.67,73.25 L91.32,73.25 C97.21,73.25 102.03,68.11 102.03,61.84 C102.04,55.57 97.22,50.43 91.33,50.43 Z" fill="#99674F"/>
  <path id="head" d="M64,11.07 C46.6,11.07 30.48,29.68 30.48,56.46 C30.48,58.05 30.54,59.59 30.66,61.09 C30.66,61.09 30.66,61.09 30.66,61.1 C30.97,65.15 31.69,68.84 32.75,72.19 C32.91,72.7 33.08,73.2 33.26,73.69 L33.26,73.7 C33.37,74.01 33.48,74.31 33.6,74.6 C33.69,74.84 33.78,75.08 33.88,75.31 C34.02,75.66 34.17,76.01 34.32,76.35 C34.57,76.92 34.83,77.47 35.1,78 C35.1,78.02 35.11,78.04 35.12,78.05 C35.29,78.38 35.46,78.71 35.63,79.03 C35.8,79.35 35.98,79.67 36.16,79.98 C39.01,84.91 42.77,88.72 47.04,91.4 C47.92,91.96 48.82,92.47 49.74,92.92 C50.32,93.22 50.92,93.5 51.51,93.75 C52.15,94.02 52.8,94.27 53.45,94.49 C53.74,94.6 54.02,94.69 54.31,94.78 C54.5,94.84 54.69,94.9 54.87,94.95 C54.89,94.96 54.91,94.96 54.92,94.96 C55.05,95.01 55.18,95.04 55.31,95.07 C55.51,95.14 55.71,95.19 55.91,95.23 C56.05,95.28 56.18,95.31 56.31,95.34 C56.51,95.39 56.71,95.44 56.91,95.47 C59.24,96.01 61.62,96.27 64,96.27 C66.38,96.27 68.76,96.01 71.08,95.47 C71.28,95.44 71.48,95.39 71.69,95.34 C71.81,95.31 71.94,95.28 72.07,95.24 C72.27,95.19 72.48,95.14 72.69,95.07 C72.8,95.05 72.92,95.02 73.04,94.97 C73.05,94.98 73.07,94.97 73.09,94.96 C73.29,94.91 73.49,94.85 73.69,94.78 C73.98,94.69 74.26,94.6 74.55,94.49 C75.2,94.27 75.85,94.02 76.5,93.74 C77.07,93.5 77.64,93.24 78.2,92.96 C78.22,92.95 78.24,92.94 78.26,92.92 C83.68,90.22 88.47,85.86 91.92,79.84 C92.1,79.53 92.27,79.21 92.44,78.89 C92.6,78.6 92.75,78.3 92.9,78 C92.92,77.97 92.94,77.94 92.95,77.9 C93.21,77.4 93.45,76.88 93.68,76.35 C93.81,76.05 93.95,75.74 94.07,75.43 C94.19,75.16 94.3,74.88 94.4,74.6 C94.5,74.35 94.59,74.1 94.68,73.85 C94.87,73.36 95.04,72.85 95.2,72.34 C96.29,68.95 97.03,65.19 97.35,61.06 C97.35,61.05 97.35,61.05 97.35,61.05 C97.46,59.56 97.52,58.04 97.52,56.46 C97.52,29.68 81.4,11.07 64,11.07 Z" fill="#BA8D68"/>
  <path d="M52.49,58.81 A4.93 5.1 0 1 1 42.63,58.81 A4.93 5.1 0 1 1 52.49,58.81 Z" fill="#49362E"/>
  <path d="M85.37,58.81 A4.93 5.1 0 1 1 75.51,58.81 A4.93 5.1 0 1 1 85.37,58.81 Z" fill="#49362E"/>
  <path id="nose" d="M67.86,68.06 C67.75,68.02 67.65,67.99 67.54,67.98 L60.47,67.98 C60.36,67.99 60.25,68.02 60.15,68.06 C59.51,68.32 59.16,68.98 59.46,69.69 C59.76,70.4 61.17,72.38 64.01,72.38 C66.85,72.38 68.26,70.39 68.56,69.69 C68.85,68.98 68.5,68.32 67.86,68.06 Z" fill="#99674F"/>
  <path id="mouth" d="M70.35,83.26 C70.35,86.44 67.51,87.11 64,87.11 C60.49,87.11 57.65,86.38 57.65,83.26 C57.65,79.98 60.49,77.96 64,77.96 C67.51,77.96 70.35,79.91 70.35,83.26 Z" fill="#5D4037"/>
  <path d="M63.9,95.69 L63.9,86.25 L92.47,83.99 L95.07,87.19 C95.07,87.19 88.92,95.7 72.84,95.7 L63.9,95.69 Z" fill="url(#SVGID_1_)"/>
  <path d="M63.94,95.69 L63.94,86.25 L35.37,83.99 L32.77,87.19 C32.77,87.19 38.92,95.7 55,95.7 L63.94,95.69 Z" fill="url(#SVGID_2_)"/>
  <path id="shirt_x5F_back_1_" d="M107.81,123.9 C107.81,106.26 85.93,97.31 63.91,97.34 C42.03,97.37 20.01,105.22 20.01,123.9 C20.01,123.9 107.81,123.9 107.81,123.9 Z" fill="url(#shirt_x5F_back_2_)"/>
  <path d="M107.91,123.42 C106.81,109.34 86.03,99.42 64.01,99.45 C42.13,99.48 23.34,107.34 20.11,123.42 L107.91,123.42 Z" fill="url(#SVGID_3_)" opacity="0.4"/>
  <path d="M21.76,81.94 L9.87,76.87 C8.21,76.16 7.44,74.25 8.15,72.59 L8.24,72.38 C8.95,70.72 10.86,69.95 12.52,70.66 L24.41,75.72 C26.07,76.43 23.42,82.64 21.76,81.94 Z" fill="#91674D"/>
  <path id="hand_1_" d="M38.99,76.13 C38.99,76.13 20.96,64.78 16.55,61.03 C13.94,58.81 11.07,55 9.58,53.17 C8.23,51.51 4.45,53.39 4.22,55.52 C4.08,56.77 4.33,58.3 5.36,60.11 C5.36,60.11 12.05,76.09 20.07,81.48 L31.04,86.3 L38.99,76.13 Z" fill="url(#hand_2_)"/>
  <path id="shirt_1_" d="M102.2,104.2 L36.26,72.97 C36.02,72.86 35.76,72.81 35.51,72.81 C34.89,72.81 34.29,73.13 33.95,73.7 L27.46,85.09 C26.97,85.92 27.23,86.99 28.04,87.51 L83.19,123.9 L115.67,123.9 C114.68,115.58 109.7,108.19 102.2,104.2 Z" fill="url(#shirt_2_)"/>
  <path id="shirt_x5F_shadow_1_" d="M91.37,99.18 L68.85,114.53 L39.6,95.12 L60.31,84.37 Z" fill="url(#shirt_x5F_shadow_2_)"/>
  <path d="M106.23,81.94 L118.12,76.88 C119.78,76.17 120.55,74.26 119.84,72.6 L119.75,72.39 C119.04,70.73 117.13,69.96 115.47,70.67 L103.58,75.73 C101.93,76.43 104.57,82.64 106.23,81.94 Z" fill="#91674D"/>
  <path id="hand" d="M89.01,76.13 C89.01,76.13 107.04,64.78 111.45,61.03 C114.06,58.81 116.93,55 118.42,53.17 C119.77,51.51 123.55,53.39 123.78,55.52 C123.92,56.77 123.67,58.3 122.64,60.11 C122.64,60.11 115.95,76.09 107.93,81.48 L96.96,86.3 L89.01,76.13 Z" fill="url(#hand_3_)"/>
  <path id="shirt" d="M100.36,85.09 L93.86,73.7 C93.53,73.13 92.93,72.81 92.3,72.81 C92.05,72.81 91.79,72.86 91.55,72.97 L25.62,104.2 C18.12,108.19 13.14,115.58 12.15,123.9 L44.63,123.9 L99.78,87.5 C100.58,86.98 100.84,85.92 100.36,85.09 Z" fill="url(#shirt_3_)"/>
  <path id="hair_7_" d="M64.02,4.03 L64.02,4.03 C64.01,4.03 64.01,4.03 64,4.03 C63.99,4.03 63.99,4.03 63.98,4.03 L63.98,4.03 C18.55,4.27 27.86,56.17 27.86,56.17 C27.86,56.17 29.9,61.52 30.83,63.88 C30.96,64.22 31.46,64.18 31.54,63.83 C32.5,59.49 36,44.1 37.76,39.42 C38.8,36.66 41.66,35.06 44.56,35.59 C49.01,36.4 56.11,37.4 63.93,37.4 C63.96,37.4 63.99,37.4 64.01,37.4 C64.03,37.4 64.07,37.4 64.09,37.4 C71.91,37.4 79.01,36.4 83.46,35.59 C86.36,35.06 89.22,36.67 90.25,39.42 C92,44.08 95.47,59.38 96.45,63.78 C96.53,64.14 97.03,64.17 97.16,63.83 L100.14,56.16 C100.15,56.17 109.46,4.27 64.02,4.03 Z" fill="#543930"/>
  <path id="hairHighlights" d="M100.15,56.17 C100.15,56.17 109.46,4.27 64.02,4.03 L64.02,4.03 C64.01,4.03 64.01,4.03 64,4.03 L64,4.03 C64,4.03 63.99,4.03 63.98,4.03 L63.98,4.03 C63.27,4.03 62.58,4.05 61.9,4.08 C60.56,4.14 59.25,4.24 58,4.39 C57.99,4.39 57.97,4.39 57.96,4.39 C57.87,4.4 57.79,4.42 57.7,4.43 C19.45,9.24 27.86,56.17 27.86,56.17 L30.84,63.85 C30.97,64.19 31.46,64.16 31.54,63.8 C32.52,59.41 36,44.09 37.76,39.43 C38.8,36.67 41.66,35.07 44.56,35.6 C49.01,36.41 56.11,37.41 63.93,37.41 C63.96,37.41 63.99,37.41 64.01,37.41 C64.03,37.41 64.07,37.41 64.09,37.41 C71.91,37.41 79.01,36.41 83.46,35.6 C86.36,35.07 89.22,36.68 90.25,39.43 C92.01,44.11 95.5,59.53 96.46,63.85 C96.54,64.21 97.03,64.24 97.16,63.9 C98.1,61.54 100.15,56.17 100.15,56.17 Z" fill="url(#hairHighlights_2_)"/>
  <path d="M40.03,48.74 C43.21,44.23 50.69,44.08 54.44,47.92 C55.09,48.59 55.78,49.45 55.29,50.42 C54.75,51.49 53.64,51.32 52.73,50.95 C50.3,49.97 47.79,49.53 45.18,50.06 C44.05,50.29 43.08,50.76 42.01,51.14 C40.56,51.64 39.1,50.13 40.03,48.74 Z" fill="#613E31"/>
  <path d="M86.09,51.14 C83.86,50.17 81.6,49.61 79.14,49.89 C78.02,50.02 76.92,50.31 75.88,50.72 C75.05,51.05 74.16,51.58 73.3,51 C70.85,49.31 75.19,46.56 76.47,46.01 C79.23,44.82 82.52,44.93 85.19,46.32 C86.25,46.87 87.4,47.67 88.03,48.72 C88.82,50.03 87.64,51.77 86.09,51.14 Z" fill="#613E31"/>
</svg>
